X: 1120
T: Da Foula Reel
B: max new tunes
B: steve tunes
M:6/8
Q: 3/8=100
K:Gmajor
V:1 
"G"G2G G2B|"C"edB "D"A2B|"G"G2G g2A|"C"BAG "D"E2D|"G"EGG G2B|"C"edB "D"A2B|"G"G2g GAB|"G"d6:|
 "G"def g2d|"C"edB "D"A2B|"G"G2G G2A|"C"BAG "D"E2D|"G"def g2d|"C"edc "D"A2B|"G"G2G GAB|"G"d6:|
"G" GAG G2g|"C"edB "D"A2B|"G"G2B A2B|GAG "Em"E2D|"G"GAG G2g|"C"edB "D"A2B|"G"G2B "D"A2B|"G"d6:|
"G" g2d B2d|"C"edB "D"A3|"G"g2B A2B|"C"GAG E2G|"G"g2d B2d|"C"edB A2B|"G"G2B "D"A2B|"G"d6:|
% abcbook-tune_id 62b5b3cc3fe7dfba1d454bcc


% abcbook-boost 10
% abcbook-tablature 
% abcbook-transpose 
% abcbook-lastupdated 1662514416350
% abcbook-soundfonts 
% abcbook-repeats 3


